; HEADER_BLOCK_START
; generated by OrcaSlicer 2.3.0 on 2025-09-06 at 16:33:40
; total layer number: 60
;_GP_TOTAL_LAYER_NUMBER_PLACEHOLDER
; filament_density: 1.27
; filament_diameter: 1.75
; max_z_height: 12.00
; HEADER_BLOCK_END

; THUMBNAIL_BLOCK_START

;
; THUMBNAIL_BLOCK_END

; THUMBNAIL_BLOCK_START

;
; THUMBNAIL_BLOCK_END

; external perimeters extrusion width = 0.40mm
; perimeters extrusion width = 0.45mm
; infill extrusion width = 0.45mm
; solid infill extrusion width = 0.40mm
; top infill extrusion width = 0.40mm
; first layer extrusion width = 0.50mm

; EXECUTABLE_BLOCK_START
M73 P0 R59
M201 X500 Y500 Z500 E5000
M203 X500 Y500 Z10 E60
M204 P500 R1000 T500
M205 X8.00 Y8.00 Z0.40 E5.00 ; sets the jerk limits, mm/sec
;TYPE:Custom
G90 ; use absolute coordinates
M83 ; extruder relative mode
M140 S65 ; set final bed temp
M104 S150 ; set temporary nozzle temp to prevent oozing during homing
G4 S10 ; allow partial nozzle warmup
G28 ; home all axis
G1 Z50 F240
G1 X2 Y10 F3000
M104 S240 ; set final nozzle temp
M190 S65 ; wait for bed temp to stabilize
M109 S240 ; wait for nozzle temp to stabilize
G1 Z0.28 F240
G92 E0
G1 Y140 E10 F1500 ; prime the nozzle
M73 P0 R58
G1 X2.3 F5000
G92 E0
G1 Y10 E10 F1200 ; prime the nozzle
G92 E0
G90
G21
M83 ; use relative distances for extrusion
; Filament gcode
M106 S0
;LAYER_CHANGE
;Z:0.2
;HEIGHT:0.2
;BEFORE_LAYER_CHANGE
;0.2
G92 E0

G1 E-5 F3600
M73 P1 R58
;_SET_FAN_SPEED_CHANGING_LAYER
M204 S500
G1 Z.6 F9000
G1 X88.171 Y81.443
G1 Z.6
G1 Z.2
G1 E5 F2400
;TYPE:Skirt
;WIDTH:0.5
G1 F3000
G1 X88.171 Y78.25 E.11892
G1 X88.562 Y76.989 E.04917
G1 X89.598 Y76.171 E.04917
G1 X90.4 Y76.021 E.03037
G1 X129.6 Y76.021 E1.46005
G1 X130.861 Y76.412 E.04917
G1 X131.679 Y77.448 E.04917
G1 X131.829 Y78.25 E.03037
G1 X131.829 Y141.75 E2.36513
G1 X131.438 Y143.011 E.04917
G1 X130.402 Y143.829 E.04917
G1 X129.6 Y143.979 E.03037
G1 X90.4 Y143.979 E1.46005
G1 X89.139 Y143.588 E.04917
G1 X88.321 Y142.552 E.04917
G1 X88.171 Y141.75 E.03037
G1 X88.171 Y81.483 E2.24472
; printing object square-thing.stl id:9223374234975940976 copy 0
G1 E-3.8 F3600
;WIPE_START
G1 F3000
G1 X88.171 Y80.483 E-1.2
;WIPE_END
G1 Z.6 F9000
G1 X128.436 Y140.586 Z.6
G1 Z.2
G1 E5 F2400
;TYPE:Inner wall
;WIDTH:0.499999
G1 F900
G1 X91.564 Y140.586 E1.37333
G1 X91.564 Y79.414 E2.27841
G1 X128.436 Y79.414 E1.37333
G1 X128.436 Y140.546 E2.27692
G1 X128.893 Y141.043 F9000
G1 F900
G1 X91.107 Y141.043 E1.40738
G1 X91.107 Y78.957 E2.31246
G1 X128.893 Y78.957 E1.40738
G1 X128.893 Y141.003 E2.31097
G1 X129.35 Y141.5 F9000
M73 P2 R58
;TYPE:Outer wall
G1 F900
G1 X90.65 Y141.5 E1.44143
G1 X90.65 Y78.5 E2.34651
M73 P2 R57
G1 X129.35 Y78.5 E1.44143
G1 X129.35 Y141.46 E2.34502
G1 E-3.5 F3600
;WIPE_START
G1 F900
G1 X128.35 Y141.461 E-1.5
;WIPE_END
G1 Z.6 F9000
G1 X128.299 Y80.482 Z.6
G1 Z.2
G1 E5 F2400
;TYPE:Bottom surface
;WIDTH:0.502946
G1 F1200
G1 X127.574 Y79.757 E.03841
G1 X126.924 Y79.757 E.02439
G1 X128.093 Y80.926 E.062
G1 X128.093 Y81.577 E.02439
G1 X126.273 Y79.757 E.09649
G1 X125.622 Y79.757 E.02439
G1 X128.093 Y82.228 E.13097
G1 X128.093 Y82.878 E.02439
G1 X124.972 Y79.757 E.16546
G1 X124.321 Y79.757 E.02439
G1 X128.093 Y83.529 E.19995
G1 X128.093 Y84.179 E.02439
G1 X123.671 Y79.757 E.23444
G1 X123.02 Y79.757 E.02439
G1 X128.093 Y84.83 E.26893
G1 X128.093 Y85.48 E.02439
G1 X122.37 Y79.757 E.30342
G1 X121.719 Y79.757 E.02439
G1 X128.093 Y86.131 E.33791
G1 X128.093 Y86.782 E.02439
G1 X121.068 Y79.757 E.3724
G1 X120.418 Y79.757 E.02439
G1 X128.093 Y87.432 E.40689
G1 X128.093 Y88.083 E.02439
G1 X119.767 Y79.757 E.44138
G1 X119.117 Y79.757 E.02439
G1 X128.093 Y88.733 E.47587
G1 X128.093 Y89.384 E.02439
G1 X118.466 Y79.757 E.51036
G1 X117.816 Y79.757 E.02439
G1 X128.093 Y90.034 E.54485
G1 X128.093 Y90.685 E.02439
G1 X117.165 Y79.757 E.57934
G1 X116.514 Y79.757 E.02439
G1 X128.093 Y91.336 E.61383
G1 X128.093 Y91.986 E.02439
G1 X115.864 Y79.757 E.64831
G1 X115.213 Y79.757 E.02439
G1 X128.093 Y92.637 E.6828
G1 X128.093 Y93.287 E.02439
G1 X114.563 Y79.757 E.71729
G1 X113.912 Y79.757 E.02439
G1 X128.093 Y93.938 E.75178
G1 X128.093 Y94.588 E.02439
G1 X113.262 Y79.757 E.78627
G1 X112.611 Y79.757 E.02439
G1 X128.093 Y95.239 E.82076
G1 X128.093 Y95.89 E.02439
G1 X111.96 Y79.757 E.85525
G1 X111.31 Y79.757 E.02439
G1 X128.093 Y96.54 E.88974
G1 X128.093 Y97.191 E.02439
G1 X110.659 Y79.757 E.92423
G1 X110.009 Y79.757 E.02439
G1 X128.093 Y97.841 E.95872
G1 X128.093 Y98.492 E.02439
G1 X109.358 Y79.757 E.99321
G1 X108.708 Y79.757 E.02439
M73 P3 R57
G1 X128.093 Y99.142 E1.0277
G1 X128.093 Y99.793 E.02439
G1 X108.057 Y79.757 E1.06219
G1 X107.406 Y79.757 E.02439
G1 X128.093 Y100.444 E1.09668
G1 X128.093 Y101.094 E.02439
G1 X106.756 Y79.757 E1.13117
G1 X106.105 Y79.757 E.02439
G1 X128.093 Y101.745 E1.16565
G1 X128.093 Y102.395 E.02439
G1 X105.455 Y79.757 E1.20014
G1 X104.804 Y79.757 E.02439
G1 X128.093 Y103.046 E1.23463
G1 X128.093 Y103.697 E.02439
G1 X104.153 Y79.757 E1.26912
G1 X103.503 Y79.757 E.02439
G1 X128.093 Y104.347 E1.30361
G1 X128.093 Y104.998 E.02439
G1 X102.852 Y79.757 E1.3381
G1 X102.202 Y79.757 E.02439
G1 X128.093 Y105.648 E1.37259
G1 X128.093 Y106.299 E.02439
G1 X101.551 Y79.757 E1.40708
G1 X100.901 Y79.757 E.02439
G1 X128.093 Y106.949 E1.44157
G1 X128.093 Y107.6 E.02439
G1 X100.25 Y79.757 E1.47606
G1 X99.599 Y79.757 E.02439
G1 X128.093 Y108.251 E1.51055
G1 X128.093 Y108.901 E.02439
M73 P3 R56
G1 X98.949 Y79.757 E1.54504
G1 X98.298 Y79.757 E.02439
G1 X128.093 Y109.552 E1.57953
G1 X128.093 Y110.202 E.02439
G1 X97.648 Y79.757 E1.61402
G1 X96.997 Y79.757 E.02439
G1 X128.093 Y110.853 E1.64851
G1 X128.093 Y111.503 E.02439
M73 P4 R56
G1 X96.347 Y79.757 E1.68299
G1 X95.696 Y79.757 E.02439
G1 X128.093 Y112.154 E1.71748
G1 X128.093 Y112.805 E.02439
G1 X95.045 Y79.757 E1.75197
G1 X94.395 Y79.757 E.02439
G1 X128.093 Y113.455 E1.78646
G1 X128.093 Y114.106 E.02439
G1 X93.744 Y79.757 E1.82095
G1 X93.094 Y79.757 E.02439
G1 X128.093 Y114.756 E1.85544
G1 X128.093 Y115.407 E.02439
G1 X92.443 Y79.757 E1.88993
G1 X91.907 Y79.757 E.0201
G1 X91.907 Y79.871 E.00429
G1 X128.093 Y116.057 E1.91835
G1 X128.093 Y116.708 E.02439
G1 X91.907 Y80.522 E1.91835
G1 X91.907 Y81.173 E.02439
G1 X128.093 Y117.359 E1.91835
G1 X128.093 Y118.009 E.02439
G1 X91.907 Y81.823 E1.91835
G1 X91.907 Y82.474 E.02439
G1 X128.093 Y118.66 E1.91835
G1 X128.093 Y119.31 E.02439
G1 X91.907 Y83.124 E1.91835
G1 X91.907 Y83.775 E.02439
G1 X128.093 Y119.961 E1.91835
G1 X128.093 Y120.611 E.02439
G1 X91.907 Y84.425 E1.91835
G1 X91.907 Y85.076 E.02439
M73 P5 R56
G1 X128.093 Y121.262 E1.91835
G1 X128.093 Y121.913 E.02439
G1 X91.907 Y85.727 E1.91835
G1 X91.907 Y86.377 E.02439
G1 X128.093 Y122.563 E1.91835
G1 X128.093 Y123.214 E.02439
G1 X91.907 Y87.028 E1.91835
G1 X91.907 Y87.678 E.02439
G1 X128.093 Y123.864 E1.91835
G1 X128.093 Y124.515 E.02439
M73 P5 R55
G1 X91.907 Y88.329 E1.91835
G1 X91.907 Y88.979 E.02439
G1 X128.093 Y125.165 E1.91835
G1 X128.093 Y125.816 E.02439
G1 X91.907 Y89.63 E1.91835
G1 X91.907 Y90.281 E.02439
G1 X128.093 Y126.467 E1.91835
G1 X128.093 Y127.117 E.02439
G1 X91.907 Y90.931 E1.91835
G1 X91.907 Y91.582 E.02439
G1 X128.093 Y127.768 E1.91835
G1 X128.093 Y128.418 E.02439
G1 X91.907 Y92.232 E1.91835
G1 X91.907 Y92.883 E.02439
G1 X128.093 Y129.069 E1.91835
G1 X128.093 Y129.72 E.02439
M73 P6 R55
G1 X91.907 Y93.533 E1.91835
G1 X91.907 Y94.184 E.02439
G1 X128.093 Y130.37 E1.91835
G1 X128.093 Y131.021 E.02439
G1 X91.907 Y94.835 E1.91835
G1 X91.907 Y95.485 E.02439
G1 X128.093 Y131.671 E1.91835
G1 X128.093 Y132.322 E.02439
G1 X91.907 Y96.136 E1.91835
G1 X91.907 Y96.786 E.02439
G1 X128.093 Y132.972 E1.91835
G1 X128.093 Y133.623 E.02439
G1 X91.907 Y97.437 E1.91835
G1 X91.907 Y98.087 E.02439
G1 X128.093 Y134.274 E1.91835
G1 X128.093 Y134.924 E.02439
G1 X91.907 Y98.738 E1.91835
G1 X91.907 Y99.389 E.02439
G1 X128.093 Y135.575 E1.91835
G1 X128.093 Y136.225 E.02439
G1 X91.907 Y100.039 E1.91835
G1 X91.907 Y100.69 E.02439
G1 X128.093 Y136.876 E1.91835
G1 X128.093 Y137.526 E.02439
G1 X91.907 Y101.34 E1.91835
G1 X91.907 Y101.991 E.02439
G1 X128.093 Y138.177 E1.91835
G1 X128.093 Y138.828 E.02439
M73 P7 R55
G1 X91.907 Y102.642 E1.91835
G1 X91.907 Y103.292 E.02439
M73 P7 R54
G1 X128.093 Y139.478 E1.91835
G1 X128.093 Y140.129 E.02439
G1 X91.907 Y103.943 E1.91835
G1 X91.907 Y104.593 E.02439
G1 X127.557 Y140.243 E1.88993
G1 X126.906 Y140.243 E.02439
G1 X91.907 Y105.244 E1.85544
G1 X91.907 Y105.894 E.02439
G1 X126.256 Y140.243 E1.82095
G1 X125.605 Y140.243 E.02439
G1 X91.907 Y106.545 E1.78646
G1 X91.907 Y107.196 E.02439
G1 X124.954 Y140.243 E1.75197
G1 X124.304 Y140.243 E.02439
G1 X91.907 Y107.846 E1.71748
G1 X91.907 Y108.497 E.02439
G1 X123.653 Y140.243 E1.68299
G1 X123.003 Y140.243 E.02439
G1 X91.907 Y109.147 E1.6485
G1 X91.907 Y109.798 E.02439
G1 X122.352 Y140.243 E1.61401
G1 X121.702 Y140.243 E.02439
G1 X91.907 Y110.448 E1.57952
G1 X91.907 Y111.099 E.02439
G1 X121.051 Y140.243 E1.54503
G1 X120.4 Y140.243 E.02439
M73 P8 R54
G1 X91.907 Y111.75 E1.51054
G1 X91.907 Y112.4 E.02439
G1 X119.75 Y140.243 E1.47605
G1 X119.099 Y140.243 E.02439
G1 X91.907 Y113.051 E1.44156
G1 X91.907 Y113.701 E.02439
G1 X118.449 Y140.243 E1.40707
G1 X117.798 Y140.243 E.02439
G1 X91.907 Y114.352 E1.37259
G1 X91.907 Y115.002 E.02439
G1 X117.148 Y140.243 E1.3381
G1 X116.497 Y140.243 E.02439
G1 X91.907 Y115.653 E1.30361
G1 X91.907 Y116.304 E.02439
G1 X115.846 Y140.243 E1.26912
G1 X115.196 Y140.243 E.02439
G1 X91.907 Y116.954 E1.23463
G1 X91.907 Y117.605 E.02439
G1 X114.545 Y140.243 E1.20014
G1 X113.895 Y140.243 E.02439
G1 X91.907 Y118.255 E1.16565
G1 X91.907 Y118.906 E.02439
G1 X113.244 Y140.243 E1.13116
G1 X112.594 Y140.243 E.02439
G1 X91.907 Y119.556 E1.09667
G1 X91.907 Y120.207 E.02439
G1 X111.943 Y140.243 E1.06218
G1 X111.292 Y140.243 E.02439
G1 X91.907 Y120.858 E1.02769
G1 X91.907 Y121.508 E.02439
G1 X110.642 Y140.243 E.9932
G1 X109.991 Y140.243 E.02439
G1 X91.907 Y122.159 E.95871
G1 X91.907 Y122.809 E.02439
M73 P8 R53
G1 X109.341 Y140.243 E.92422
G1 X108.69 Y140.243 E.02439
G1 X91.907 Y123.46 E.88973
G1 X91.907 Y124.11 E.02439
G1 X108.04 Y140.243 E.85525
G1 X107.389 Y140.243 E.02439
G1 X91.907 Y124.761 E.82076
G1 X91.907 Y125.412 E.02439
G1 X106.738 Y140.243 E.78627
G1 X106.088 Y140.243 E.02439
G1 X91.907 Y126.062 E.75178
G1 X91.907 Y126.713 E.02439
M73 P9 R53
G1 X105.437 Y140.243 E.71729
G1 X104.787 Y140.243 E.02439
G1 X91.907 Y127.363 E.6828
G1 X91.907 Y128.014 E.02439
G1 X104.136 Y140.243 E.64831
G1 X103.485 Y140.243 E.02439
G1 X91.907 Y128.665 E.61382
G1 X91.907 Y129.315 E.02439
G1 X102.835 Y140.243 E.57933
G1 X102.184 Y140.243 E.02439
G1 X91.907 Y129.966 E.54484
G1 X91.907 Y130.616 E.02439
G1 X101.534 Y140.243 E.51035
G1 X100.883 Y140.243 E.02439
G1 X91.907 Y131.267 E.47586
G1 X91.907 Y131.917 E.02439
G1 X100.233 Y140.243 E.44137
G1 X99.582 Y140.243 E.02439
G1 X91.907 Y132.568 E.40688
G1 X91.907 Y133.219 E.02439
G1 X98.931 Y140.243 E.37239
G1 X98.281 Y140.243 E.02439
G1 X91.907 Y133.869 E.33791
G1 X91.907 Y134.52 E.02439
G1 X97.63 Y140.243 E.30342
G1 X96.98 Y140.243 E.02439
G1 X91.907 Y135.17 E.26893
G1 X91.907 Y135.821 E.02439
G1 X96.329 Y140.243 E.23444
G1 X95.679 Y140.243 E.02439
G1 X91.907 Y136.471 E.19995
G1 X91.907 Y137.122 E.02439
G1 X95.028 Y140.243 E.16546
G1 X94.377 Y140.243 E.02439
G1 X91.907 Y137.773 E.13097
G1 X91.907 Y138.423 E.02439
G1 X93.727 Y140.243 E.09648
G1 X93.076 Y140.243 E.02439
G1 X91.907 Y139.074 E.06199
G1 X91.907 Y139.724 E.02439
G1 X92.631 Y140.449 E.03841
; stop printing object square-thing.stl id:9223374234975940976 copy 0
;LAYER_CHANGE
;Z:0.4
;HEIGHT:0.2
;BEFORE_LAYER_CHANGE
;0.4
G92 E0

G1 E-3.5 F3600
;WIPE_START
G1 F1200
G1 X91.924 Y139.742 E-1.5
;WIPE_END
;_SET_FAN_SPEED_CHANGING_LAYER
; printing object square-thing.stl id:9223374234975940976 copy 0
M204 S700
G1 Z.8 F9000
G1 X128.611 Y140.761 Z.8
G1 Z.4
G1 E5 F2400
M204 S500
;TYPE:Inner wall
;WIDTH:0.449999
G1 X91.389 Y140.761 E1.23471
G1 X91.389 Y79.239 E2.04078
G1 X128.611 Y79.239 E1.23471
G1 X128.611 Y140.721 E2.03946
M204 S700
G1 X129.018 Y141.168 F9000
M204 S500
G1 F2400
G1 X90.982 Y141.168 E1.26172
G1 X90.982 Y78.832 E2.06779
G1 X129.018 Y78.832 E1.26172
G1 X129.018 Y141.128 E2.06646
M204 S700
G1 X129.4 Y141.55 F9000
M204 S500
;TYPE:Outer wall
;WIDTH:0.399999
G1 F1500
G1 X90.6 Y141.55 E1.12898
G1 X90.6 Y78.45 E1.83605
G1 X129.4 Y78.45 E1.12898
G1 X129.4 Y141.51 E1.83488
M204 S700
G1 E-3.5 F3600
;WIPE_START
G1 F1500
G1 X128.4 Y141.511 E-1.5
;WIPE_END
G1 Z.8 F9000
G1 X128.229 Y139.072 Z.8
G1 Z.4
G1 E5 F2400
M204 S500
;TYPE:Internal solid infill
G1 X126.922 Y140.379 E.05379
G1 X128.229 Y140.379 E.03803
G1 X128.229 Y139.112 E.03687
M204 S700
G1 X127.871 Y139.952 F9000
M204 S500
;WIDTH:0.45151
G1 F2400
G1 X127.82 Y139.952 E.0017
G1 X127.795 Y139.996 E.0017
G1 X127.82 Y140.04 E.0017
G1 X127.877 Y140.031 E.00191
M204 S700
G1 X126.213 Y140.633 F9000
M204 S500
;WIDTH:0.400376
G1 F2400
G1 X128.322 Y138.523 E.08691
G1 X128.322 Y138.018 E.01472
G1 X125.868 Y140.472 E.10112
G1 X125.362 Y140.472 E.01472
G1 X128.322 Y137.512 E.12194
G1 X128.322 Y137.007 E.01472
G1 X124.857 Y140.472 E.14276
G1 X124.351 Y140.472 E.01472
G1 X128.322 Y136.501 E.16359
G1 X128.322 Y135.996 E.01472
G1 X123.846 Y140.472 E.18441
G1 X123.34 Y140.472 E.01472
G1 X128.322 Y135.49 E.20524
G1 X128.322 Y134.985 E.01472
G1 X122.835 Y140.472 E.22606
G1 X122.329 Y140.472 E.01472
G1 X128.322 Y134.479 E.24688
G1 X128.322 Y133.974 E.01472
G1 X121.824 Y140.472 E.26771
G1 X121.318 Y140.472 E.01472
G1 X128.322 Y133.468 E.28853
G1 X128.322 Y132.963 E.01472
G1 X120.813 Y140.472 E.30936
G1 X120.307 Y140.472 E.01472
M73 P10 R53
G1 X128.322 Y132.457 E.33018
G1 X128.322 Y131.952 E.01472
G1 X119.801 Y140.472 E.351
G1 X119.296 Y140.472 E.01472
G1 X128.322 Y131.446 E.37183
G1 X128.322 Y130.94 E.01472
G1 X118.79 Y140.472 E.39265
G1 X118.285 Y140.472 E.01472
G1 X128.322 Y130.435 E.41348
G1 X128.322 Y129.929 E.01472
G1 X117.779 Y140.472 E.4343
G1 X117.274 Y140.472 E.01472
G1 X128.322 Y129.424 E.45512
G1 X128.322 Y128.918 E.01472
G1 X116.768 Y140.472 E.47595
G1 X116.263 Y140.472 E.01472
G1 X128.322 Y128.413 E.49677
G1 X128.322 Y127.907 E.01472
G1 X115.757 Y140.472 E.5176
G1 X115.252 Y140.472 E.01472
G1 X128.322 Y127.402 E.53842
G1 X128.322 Y126.896 E.01472
G1 X114.746 Y140.472 E.55925
G1 X114.241 Y140.472 E.01472
G1 X128.322 Y126.391 E.58007
G1 X128.322 Y125.885 E.01472
G1 X113.735 Y140.472 E.60089
G1 X113.23 Y140.472 E.01472
G1 X128.322 Y125.38 E.62172
G1 X128.322 Y124.874 E.01472
G1 X112.724 Y140.472 E.64254
G1 X112.219 Y140.472 E.01472
G1 X128.322 Y124.369 E.66337
G1 X128.322 Y123.863 E.01472
G1 X111.713 Y140.472 E.68419
G1 X111.208 Y140.472 E.01472
G1 X128.322 Y123.358 E.70501
G1 X128.322 Y122.852 E.01472
G1 X110.702 Y140.472 E.72584
G1 X110.197 Y140.472 E.01472
G1 X128.322 Y122.347 E.74666
G1 X128.322 Y121.841 E.01472
G1 X109.691 Y140.472 E.76749
G1 X109.186 Y140.472 E.01472
G1 X128.322 Y121.336 E.78831
G1 X128.322 Y120.83 E.01472
G1 X108.68 Y140.472 E.80913
G1 X108.175 Y140.472 E.01472
G1 X128.322 Y120.325 E.82996
G1 X128.322 Y119.819 E.01472
G1 X107.669 Y140.472 E.85078
G1 X107.164 Y140.472 E.01472
G1 X128.322 Y119.314 E.87161
G1 X128.322 Y118.808 E.01472
G1 X106.658 Y140.472 E.89243
G1 X106.152 Y140.472 E.01472
G1 X128.322 Y118.302 E.91325
G1 X128.322 Y117.797 E.01472
M73 P10 R52
G1 X105.647 Y140.472 E.93408
G1 X105.141 Y140.472 E.01472
G1 X128.322 Y117.291 E.9549
G1 X128.322 Y116.786 E.01472
G1 X104.636 Y140.472 E.97573
G1 X104.13 Y140.472 E.01472
G1 X128.322 Y116.28 E.99655
G1 X128.322 Y115.775 E.01472
G1 X103.625 Y140.472 E1.01737
G1 X103.119 Y140.472 E.01472
G1 X128.322 Y115.269 E1.0382
G1 X128.322 Y114.764 E.01472
G1 X102.614 Y140.472 E1.05902
G1 X102.108 Y140.472 E.01472
G1 X128.322 Y114.258 E1.07985
G1 X128.322 Y113.753 E.01472
G1 X101.603 Y140.472 E1.10067
G1 X101.097 Y140.472 E.01472
G1 X128.322 Y113.247 E1.12149
G1 X128.322 Y112.742 E.01472
G1 X100.592 Y140.472 E1.14232
G1 X100.086 Y140.472 E.01472
G1 X128.322 Y112.236 E1.16314
G1 X128.322 Y111.731 E.01472
G1 X99.581 Y140.472 E1.18397
G1 X99.075 Y140.472 E.01472
G1 X128.322 Y111.225 E1.20479
G1 X128.322 Y110.72 E.01472
